!!!OTL: IHR STAEDTER SUCHT IHR FREUDE
!!!ARE: Europa, Mitteleuropa, Deutschland
!!!SCT: B0182
!!!YEM: Copyright 1995, estate of Helmut Schaffrath.
**kern
*ICvox
*Ivox
*M6/8
*k[b-e-]
*B-:
{8f
=1
4b-
8b-
4cc
8cc
=2
4.dd
4cc}
{8dd
=3
4ee-
8dd
4cc
8b-
=4
4.cc
4r}
{8f
=5
4b-
8b-
4cc
8cc
=6
4.dd
4cc}
{8ff
=7
4ff
8dd
8ee-
8dd
8cc
=8
4.b-
4r}
{8f
=9
4cc
8cc
4dd
8dd
=10
4.cc
4dd}
{8ee-
=11
4ff
8dd
8ff
8ee-
8dd
=12
4.cc
4r}
{8f
=13
4b-
8b-
4cc
8cc
=14
4.dd
4cc}
{8ff
=15
4ff
8dd
8ee-
8dd
8cc
=16
4.b-
4r}
==
!!!AGN: Natur - Lied, Land - Leben
!!!ONB: ESAC (Essen Associative Code) Database: BOEHME
!!!AMT: compound duple
!!!AIN: vox
!!!EED: Helmut Schaffrath
!!!EEV: 1.0
*-
